X:1
T:Golden Eagle, The
M:C|
L:1/8
R:hornpipe
D:Kevin and S\'eamus Glackin: Northern Lights
Z:Devin McCabe
K:G
BA|:GB,DG BDGB|dGBd gbag|fed^c =cAFA|GBAG (3FED BA|
!GB,DG BDGB|dGBd gbag|fed^c =cAFA|1GBAF GBBA:|2GBAF G2 (3bbb|
!|:bB^df bagf|e^def gfg^g|aA^ce agfe|(3ded ^ce d2ab|
!c'afd ^cdef|gfga bgag|fed^c =cAFA|1GBAF G2 (3bbb:|2GBAF GBBA||

%  ABC2Win Version 2.1 8/25/2001
